!!!!SEGMENT: pl-wn--sd-xvi-qu-273--106_gomolka-mikolaj--chwalcie-pana-prze-dobroc-jego-nieprzebrana.krn
!!!cenid: 15xx:311
!!!COM: Gomółka, Mikołaj
!!!COM-rismid: pe30013343
!!!CDT: ~1535->1591/04/30
!!!CNT: Polish
!!!GTL: Melodiae na psalterz polski
!!!OTL: CVI. Chwalcie Pana prze dobroć Jego nieprzebraną,
!!!ONB: Confitemini Domino: quoniam bonus:
!!!PDT: 1580
!!!AGN: Sacred
!!!SMS-siglum: PL-Wn
!!!SMS-shelfmark: SD XVI.Qu.273
!!!SMS-shelfwork: 106 G
!!!NIFC-rismid:
!!!ONB-nifc: Melodiae na psalterz polski
**kern	**text	**kern	**text	**kern	**text	**kern	**text
*part4	*part4	*part3	*part3	*part2	*part2	*part1	*part1
*staff4	*staff4	*staff3	*staff3	*staff2	*staff2	*staff1	*staff1
*clefF4	*	*clefC3	*	*clefC3	*	*clefC1	*
*k[b-]	*	*k[b-]	*	*k[b-]	*	*k[b-]	*
*D:	*	*D:	*	*D:	*	*D:	*
*	*	*M4/2	*	*M4/2	*	*M4/2	*
*met	*	*met(C|)	*	*met(C|)	*	*met(C|)	*
=1-	=1-	=1-	=1-	=1-	=1-	=1-	=1-
1D\	Chwal-	1d\	Chwal-	1f\	Chwal-	1a\	Chwal-
2AA/	.	2c#X/	(-cie)	2e\	(-cie)	2a\	(-cie)
2D/	(-cie)	2d\	pá-	2f#\X	pá-	2a\	pá-
=2-	=2-	=2-	=2-	=2-	=2-	=2-	=2-
2GG/	pá-	2d\	(-na)	2g\	(-na)	2b-\	(-na)
!	!	!LO:TX:a:t=P:brakuje dźwięku. przawdopodobnie 2d:problem	!	!	!	!	!
1G\	(-na)	2ryy	.	1G/	prʒe	2b-\	prʒe
.	.	2.d\	prʒe	.	.	2a\	.
2F#\X	prʒe	.	.	2A/	.	2a\	do-
.	.	4c\	.	.	.	.	.
=3-	=3-	=3-	=3-	=3-	=3-	=3-	=3-
2G\	.	4B-/	do-	2B-/	do-	2g/	(-broć)
.	.	4A/	(-broć)	.	.	.	.
2GG/	do-	2G/	ie-(g)o	2.B-/	(-broć)	2.b-\	ie-(g)o
2GG/	(-broć)	2G/	nie	.	.	.	.
.	.	.	.	4c/	ie-	4a\	nie
2FF#/X	ie-	2A/	prʒe-	2d\	-(g)o	1a\	p-
=4-	=4-	=4-	=4-	=4-	=4-	=4-	=4-
2GG/	-(g)o	2B-/	(-bra-	2.d\	nie	.	.
2GG/	nie	2B-/	-ną)	.	.	2g/	-rʒe-
.	.	.	.	4e\	prʒe-	.	.
2D/	prʒe-	2A/	Chwal-	2f\	(-bra-	2a\	(-bra-
2G\	(-bra-	2Bn/X	.	2d\	-ną)	2g/	-ną)
=5-	=5-	=5-	=5-	=5-	=5-	=5-	=5-
2C/	-ną)	2c/	(-cie)	2e\	Chwal-	2g/	Chwal-
2C/	Chwal-	2c/	prʒe	2e\	.	2g/	(-cie)
1FF/	.	1c\	.	1f\	(-cie)	1a\	.
=6-	=6-	=6-	=6-	=6-	=6-	=6-	=6-
2C/	.	2G/	li-	2e\	prʒe	2g/	prʒe
2C/	(-cie)	2G/	(-tość)	2c/	li-	2e/	li-(-tość)
2C/	prʒe	2G/	wie-	2c/	(-tość)	2e/	wie-
2C/	li-(tość)	2G/	(-kom)	2c/	wie-	2e/	-kom
=7-	=7-	=7-	=7-	=7-	=7-	=7-	=7-
2.BB-/	wie-	2B-/	ʒ̇a(dnym)	2.d\	(-kom)	2.f/	ʒ̇a(d-
.	.	2.F/	nie	.	.	.	.
4C/	(-kom)	.	.	4c\	ʒ̇a(d-	4e/	-nym)
4D/	ʒ̇̇a(d-	.	.	2B-/	-nym)	2d/	nie
4E\	-nym)	4G/	.	.	.	.	.
2F\	nie	2A/	pod-	2F/	nie	1d/	.
=8-	=8-	=8-	=8-	=8-	=8-	=8-	=8-
1E-\	pod-	1G/	.	1G/	pod-	.	.
.	.	.	.	.	.	2c/	pod-
000D\	-dá-ną.	000F#X/	-dá-ną	000A/	-dá-ną.	000d/	-dá-ną.
=-	=-	=-	=-	=-	=-	=-	=-
*-	*-	*-	*-	*-	*-	*-	*-
!!!RDF**kern: l = terminal long
!!!system-decoration: s1,s2,s3,s4
!!!ENC: Leszek Kubiak
!!!END: data 2020-02-18
!!!URL-scan: https://polona.pl/item/melodiae-na-psalterz-polski,Nzk3MTM4ODQ/247 Scan on Polona
!!!IIIF: https://polona.pl/iiif/item/Nzk3MTM4ODQ/manifest.json
